X:14
T:Tom McVicars
R:polka
M:2/4
L:1/8
K:Edor
|:E>F G/F/G/A/ |Be B>A|FD D/E/F/G/|AA/B/ A/G/F/D/|
|E>F G/F/G/A/ |Be B>A|Fd BA/F/|E2 ED:||
|:ee B/c/d/B/|ee B>c|dA A/B/A/G/|F/G/A/F/ D2|
|E>F G/F/G/A/ |Be B>A|Fd BA/F/|E2 ED:||
